Hatter-kde/actions/24/labplot-xy-fourier-transform-curve.svg

<svg xmlns="http://www.w3.org/2000/svg" viewBox="0 0 24 24">
  <defs id="defs3051">
    <style type="text/css" id="current-color-scheme">
      .ColorScheme-Text {
        color:#363636;
      }
      .ColorScheme-Highlight {
        color:#3daee9;
      }
      </style>
  </defs><g transform="translate(1,1)">
 <path 
     style="fill:currentColor;fill-opacity:1;stroke:none" 
     d="M 2 3 L 2 4 L 2 11 L 2 12 L 2 19 L 3 19 L 3 12 L 11 12 L 11 17 L 11 18 L 20 18 L 20 17 L 20 11 L 12 11 L 12 4 L 3 4 L 3 3 L 2 3 z M 3 5 L 11 5 L 11 11 L 3 11 L 3 5 z M 12 12 L 19 12 L 19 17 L 12 17 L 12 12 z "
     class="ColorScheme-Text"
     />
 <path 
     style="fill:currentColor;fill-opacity:1;stroke:none" 
     d="M 7,3 C 6.0955801,3 5.3630583,3.6034832 4.7695312,4.3652344 4.1760042,5.1269856 3.6856261,6.0957593 3.28125,7.0566406 2.4724978,8.9784034 2.0136719,10.882812 2.0136719,10.882812 l 0.9726562,0.234376 c 0,0 0.4474039,-1.8455914 1.2167969,-3.6738286 0.3846965,-0.9141187 0.8513471,-1.820345 1.3535156,-2.4648438 0.5001406,-0.6418961 0.9994888,-0.9719176 1.4375,-0.9746094 0.4208002,0.013779 0.7829782,0.1849883 1.15625,0.5429688 0.3758235,0.3604276 0.7398764,0.9081422 1.0761719,1.5878906 0.6725911,1.3594969 1.2345245,3.2261636 1.7968755,5.1015624 0.56235,1.875399 1.123821,3.759112 1.859374,5.214844 0.367777,0.727866 0.778279,1.354826 1.28711,1.816406 0.50725,0.460146 1.13933,0.747934 1.83789,0.730469 0.876622,-0.0041 1.542608,-0.633925 2.03125,-1.402344 0.490232,-0.770918 0.856353,-1.740786 1.142579,-2.703125 0.572451,-1.924677 0.814453,-3.828125 0.814453,-3.828125 l -0.992188,-0.128906 c 0,0 -0.238349,1.846552 -0.78125,3.671875 -0.27145,0.912661 -0.623332,1.817793 -1.027344,2.453125 C 16.791301,17.695879 16.388448,18 16,18 l -0.0078,0 -0.0059,0 C 15.562694,18.01175 15.211514,17.860775 14.841797,17.525391 14.47208,17.190006 14.110323,16.662863 13.775391,16 13.105526,14.674274 12.542618,12.823945 11.980469,10.949219 11.41832,9.0744925 10.857287,7.175514 10.123047,5.6914062 9.7559266,4.9493524 9.3455816,4.3073656 8.8417969,3.8242188 8.3380121,3.3410719 7.7153687,3.0192827 7.0136719,3 L 7.0078125,3 7,3 Z"
     class="ColorScheme-Highlight"
     />
</g></svg>

<?xml version="1.0" encoding="UTF-8"?>
<svg viewBox="0 0 24 24" xmlns="http://www.w3.org/2000/svg">
 <defs id="defs3051">
  <style id="current-color-scheme" type="text/css">.ColorScheme-Text {
        color:#363636;
      }
      .ColorScheme-Highlight {
        color:#3daee9;
      }</style>
 </defs>
 <g transform="translate(1,1)" fill="currentColor">
  <path class="ColorScheme-Text" d="m2 3v1 7 1 7h1v-7h8v5 1h9v-1-6h-8v-7h-9v-1h-1zm1 2h8v6h-8v-6zm9 7h7v5h-7v-5z"/>
  <path class="ColorScheme-Highlight" d="m7 3c-0.90442 0-1.6369 0.60348-2.2305 1.3652-0.59353 0.76175-1.0839 1.7305-1.4883 2.6914-0.80875 1.9218-1.2676 3.8262-1.2676 3.8262l0.97266 0.23438s0.4474-1.8456 1.2168-3.6738c0.3847-0.91412 0.85135-1.8203 1.3535-2.4648 0.50014-0.6419 0.99949-0.97192 1.4375-0.97461 0.4208 0.013779 0.78298 0.18499 1.1562 0.54297 0.37582 0.36043 0.73988 0.90814 1.0762 1.5879 0.67259 1.3595 1.2345 3.2262 1.7969 5.1016 0.56235 1.8754 1.1238 3.7591 1.8594 5.2148 0.36778 0.72787 0.77828 1.3548 1.2871 1.8164 0.50725 0.46015 1.1393 0.74793 1.8379 0.73047 0.87662-0.0041 1.5426-0.63392 2.0312-1.4023 0.49023-0.77092 0.85635-1.7408 1.1426-2.7031 0.57245-1.9247 0.81445-3.8281 0.81445-3.8281l-0.99219-0.12891s-0.23835 1.8466-0.78125 3.6719c-0.27145 0.91266-0.62333 1.8178-1.0273 2.4531-0.40401 0.63533-0.80686 0.93945-1.1953 0.93945h-0.0078-0.0059c-0.42361 0.01175-0.77479-0.13922-1.1445-0.47461-0.36972-0.33538-0.73147-0.86253-1.0664-1.5254-0.66986-1.3257-1.2328-3.1761-1.7949-5.0508-0.56215-1.8747-1.1232-3.7737-1.8574-5.2578-0.36712-0.74205-0.77747-1.384-1.2813-1.8672-0.50378-0.48315-1.1264-0.80494-1.8281-0.82422h-0.0058594-0.0078125z"/>
 </g>
</svg>
